;FLAVOR:UltiGCode
;TIME:1496
;MATERIAL:1039
;MATERIAL2:0
;NOZZLE_DIAMETER:0.6
;Generated with Cura_SteamEngine 4.0.0
M82 ;absolute extrusion mode

G92 E0
;LAYER_COUNT:199
;LAYER:0
M107
;MESH:link.stl
G0 F3960 X103.785 Y110.647 Z0.3
;TYPE:WALL-INNER
G1 F1320 X103.945 Y110.694 E0.01501
G1 X104.111 Y110.785 E0.03205
G1 X104.243 Y110.904 E0.04804
G1 X104.641 Y111.47 E0.11031
G1 X104.201 Y112.008 E0.17287
G1 X104.06 Y112.118 E0.18896
G1 X103.907 Y112.188 E0.2041
G1 X103.712 Y112.229 E0.22204
G1 X103.541 Y112.226 E0.23743
G1 X103.364 Y112.181 E0.25387
G1 X103.209 Y112.102 E0.26952
G1 X103.059 Y111.976 E0.28715
G1 X102.954 Y111.837 E0.30283
G1 X102.886 Y111.683 E0.31798
G1 X102.85 Y111.495 E0.33521
G1 X102.857 Y111.318 E0.35115
G1 X102.905 Y111.137 E0.36801
G1 X102.991 Y110.977 E0.38435
G1 X103.107 Y110.843 E0.40031
G1 X103.251 Y110.739 E0.41629
G1 X103.407 Y110.672 E0.43157
G1 X103.597 Y110.639 E0.44893
G1 X103.785 Y110.647 E0.46586
G0 F3960 X105.287 Y110.885
G0 X117.769 Y110.886
G0 X119.46 Y110.774
G1 F1320 X119.631 Y110.818 E0.48176
G1 X119.801 Y110.904 E0.4989
G1 X119.936 Y111.018 E0.5148
G1 X120.046 Y111.163 E0.53118
G1 X120.114 Y111.317 E0.54634
G1 X120.15 Y111.505 E0.56356
G1 X120.143 Y111.682 E0.57951
G1 X120.095 Y111.863 E0.59636
G1 X120.009 Y112.023 E0.61271
G1 X119.893 Y112.157 E0.62866
G1 X119.749 Y112.262 E0.6447
G1 X119.581 Y112.333 E0.66111
G1 X119.417 Y112.362 E0.6761
G1 X119.214 Y112.353 E0.69439
G1 X119.056 Y112.307 E0.7092
G1 X118.889 Y112.214 E0.7264
G1 X118.759 Y112.098 E0.74208
G1 X118.359 Y111.529 E0.80468
G1 X118.797 Y110.993 E0.86698
G1 X118.94 Y110.882 E0.88327
G1 X119.093 Y110.812 E0.89841
G1 X119.286 Y110.772 E0.91615
G1 X119.46 Y110.774 E0.93181
G0 F3960 X104.993 Y111.45
G1 F1320 X118.009 Y111.45 E2.10325
G1 X118.036 Y111.45 E2.10568
G1 X118.585 Y110.778 E2.18378
G1 X118.782 Y110.625 E2.20623
G1 X119.001 Y110.524 E2.22794
G1 X119.257 Y110.471 E2.25146
G1 X119.501 Y110.475 E2.27343
G1 X119.739 Y110.536 E2.29554
G1 X119.964 Y110.65 E2.31824
G1 X120.156 Y110.812 E2.34085
G1 X120.305 Y111.009 E2.36308
G1 X120.403 Y111.231 E2.38492
G1 X120.451 Y111.481 E2.40783
G1 X120.442 Y111.728 E2.43008
G1 X120.376 Y111.973 E2.45291
G1 X120.259 Y112.193 E2.47534
G1 X120.097 Y112.379 E2.49754
G1 X119.898 Y112.524 E2.5197
G1 X119.667 Y112.622 E2.54228
G1 X119.434 Y112.664 E2.56359
G1 X119.166 Y112.651 E2.58774
G1 X118.939 Y112.585 E2.60901
G1 X118.714 Y112.461 E2.63213
G1 X118.534 Y112.3 E2.65387
G1 X118.009 Y111.553 E2.73604
G1 X104.993 Y111.551 E3.13433
G1 X104.963 Y111.55 E3.13703
G1 X104.411 Y112.225 E3.21551
G1 X104.218 Y112.375 E3.23751
G1 X103.999 Y112.476 E3.25921
G1 X103.742 Y112.529 E3.28283
G1 X103.5 Y112.526 E3.30461
G1 X103.258 Y112.464 E3.3271
G1 X103.041 Y112.353 E3.34903
G1 X102.841 Y112.185 E3.37254
G1 X102.695 Y111.991 E3.39439
G1 X102.597 Y111.769 E3.41623
G1 X102.549 Y111.519 E3.43914
G1 X102.558 Y111.272 E3.46139
G1 X102.624 Y111.027 E3.48423
G1 X102.741 Y110.807 E3.50665
G1 X102.903 Y110.621 E3.52885
G1 X103.102 Y110.476 E3.55101
G1 X103.324 Y110.382 E3.57271
G1 X103.577 Y110.338 E3.59582
G1 X103.835 Y110.349 E3.61906
G1 X104.059 Y110.415 E3.64008
G1 X104.287 Y110.54 E3.66348
G1 X104.466 Y110.7 E3.68509
G1 X104.993 Y111.45 E3.76758
G0 F3960 X105.149 Y111.15
G1 F1320 X117.894 Y111.15 E4.91463
G1 X118.374 Y110.562 E4.98295
G1 X118.624 Y110.368 E5.01143
G1 X118.908 Y110.237 E5.03958
G1 X119.228 Y110.17 E5.069
G1 X119.542 Y110.176 E5.09727
G1 X119.847 Y110.254 E5.1256
G1 X120.127 Y110.396 E5.15385
G1 X120.376 Y110.606 E5.18317
G1 X120.565 Y110.856 E5.21138
G1 X120.692 Y111.142 E5.23954
G1 X120.752 Y111.457 E5.2684
G1 X120.741 Y111.773 E5.29686
G1 X120.658 Y112.082 E5.32565
G1 X120.507 Y112.364 E5.35444
G1 X120.302 Y112.601 E5.38264
G1 X120.047 Y112.787 E5.41105
G1 X119.754 Y112.911 E5.43969
G1 X119.449 Y112.965 E5.46756
G1 X119.119 Y112.949 E5.4973
G1 X118.821 Y112.863 E5.52521
G1 X118.539 Y112.708 E5.55417
G1 X118.309 Y112.501 E5.58202
G1 X117.853 Y111.853 E5.65333
G1 X105.105 Y111.85 E6.80065
G1 X104.624 Y112.44 E6.86916
G1 X104.376 Y112.632 E6.89739
G1 X104.092 Y112.763 E6.92554
G1 X103.772 Y112.83 E6.95496
G1 X103.459 Y112.825 E6.98314
G1 X103.154 Y112.747 E7.01147
G1 X102.872 Y112.603 E7.03997
G1 X102.622 Y112.393 E7.06935
G1 X102.435 Y112.144 E7.09738
G1 X102.308 Y111.858 E7.12554
G1 X102.248 Y111.543 E7.1544
G1 X102.259 Y111.227 E7.18286
G1 X102.342 Y110.918 E7.21166
G1 X102.493 Y110.636 E7.24045
G1 X102.698 Y110.399 E7.26865
G1 X102.953 Y110.213 E7.29705
G1 X103.242 Y110.091 E7.32529
G1 X103.557 Y110.036 E7.35407
G1 X103.883 Y110.051 E7.38344
G1 X104.174 Y110.136 E7.41072
G1 X104.463 Y110.294 E7.44036
G1 X104.691 Y110.499 E7.46796
G1 X105.149 Y111.15 E7.5396
G0 F3960 X105.305 Y110.85
G1 F1320 X117.752 Y110.85 E8.65983
G1 X118.164 Y110.346 E8.71841
G1 X118.468 Y110.109 E8.75311
G1 X118.814 Y109.95 E8.78738
G1 X119.198 Y109.869 E8.8227
G1 X119.583 Y109.877 E8.85735
G1 X119.951 Y109.97 E8.89152
G1 X120.296 Y110.146 E8.92637
G1 X120.595 Y110.397 E8.96151
G1 X120.825 Y110.703 E8.99596
G1 X120.981 Y111.053 E9.03045
G1 X121.053 Y111.433 E9.06526
G1 X121.04 Y111.818 E9.09993
G1 X120.939 Y112.193 E9.13488
G1 X120.757 Y112.534 E9.16967
G1 X120.506 Y112.823 E9.20412
G1 X120.196 Y113.049 E9.23864
G1 X119.84 Y113.2 E9.27345
G1 X119.464 Y113.266 E9.3078
G1 X119.073 Y113.247 E9.34304
G1 X118.703 Y113.141 E9.37767
G1 X118.367 Y112.956 E9.4122
G1 X118.082 Y112.7 E9.44667
G1 X117.697 Y112.153 E9.50688
G1 X105.247 Y112.15 E10.62738
G1 X104.834 Y112.656 E10.68616
G1 X104.532 Y112.891 E10.7206
G1 X104.186 Y113.05 E10.75487
G1 X103.802 Y113.131 E10.79019
G1 X103.418 Y113.124 E10.82476
G1 X103.048 Y113.03 E10.85911
G1 X102.704 Y112.854 E10.89389
G1 X102.405 Y112.603 E10.92902
G1 X102.175 Y112.297 E10.96348
G1 X102.019 Y111.947 E10.99796
G1 X101.947 Y111.567 E11.03277
G1 X101.96 Y111.182 E11.06744
G1 X102.061 Y110.807 E11.10239
G1 X102.243 Y110.466 E11.13718
G1 X102.494 Y110.177 E11.17163
G1 X102.804 Y109.951 E11.20616
G1 X103.16 Y109.8 E11.24096
G1 X103.537 Y109.734 E11.27541
G1 X103.93 Y109.753 E11.31082
G1 X104.29 Y109.857 E11.34455
G1 X104.636 Y110.047 E11.38007
G1 X104.918 Y110.3 E11.41417
G1 X105.305 Y110.85 E11.47469
G0 F3960 X105.383 Y110.7
;TYPE:WALL-OUTER
G1 F1320 X117.681 Y110.7 E12.58151
G1 X118.058 Y110.239 E12.63511
G1 X118.391 Y109.98 E12.67308
G1 X118.768 Y109.806 E12.71045
G1 X119.183 Y109.719 E12.74861
G1 X119.601 Y109.727 E12.78624
G1 X120.007 Y109.83 E12.82394
G1 X120.38 Y110.02 E12.86161
G1 X120.703 Y110.292 E12.89961
G1 X120.955 Y110.626 E12.93727
G1 X121.124 Y111.007 E12.97478
G1 X121.204 Y111.423 E13.01291
G1 X121.189 Y111.841 E13.05055
G1 X121.08 Y112.247 E13.08839
G1 X120.882 Y112.618 E13.12623
G1 X120.608 Y112.934 E13.16388
G1 X120.269 Y113.181 E13.20163
G1 X119.882 Y113.345 E13.23945
G1 X119.474 Y113.417 E13.27674
G1 X119.05 Y113.396 E13.31495
G1 X118.647 Y113.281 E13.35267
G1 X118.277 Y113.077 E13.39069
G1 X117.969 Y112.8 E13.42797
G1 X117.619 Y112.303 E13.48268
G1 X105.318 Y112.3 E14.58977
G1 X104.94 Y112.763 E14.64357
G1 X104.609 Y113.02 E14.68128
G1 X104.232 Y113.194 E14.71865
G1 X103.817 Y113.281 E14.75681
G1 X103.4 Y113.274 E14.79435
G1 X102.992 Y113.17 E14.83224
G1 X102.62 Y112.98 E14.86984
G1 X102.297 Y112.708 E14.90784
G1 X102.045 Y112.374 E14.9455
G1 X101.876 Y111.993 E14.98301
G1 X101.796 Y111.577 E15.02113
G1 X101.811 Y111.159 E15.05878
G1 X101.92 Y110.753 E15.09661
G1 X102.118 Y110.382 E15.13446
G1 X102.392 Y110.066 E15.1721
G1 X102.731 Y109.819 E15.20985
G1 X103.118 Y109.655 E15.24768
G1 X103.527 Y109.583 E15.28506
G1 X103.954 Y109.604 E15.32353
G1 X104.349 Y109.718 E15.36053
G1 X104.723 Y109.923 E15.39892
G1 X105.031 Y110.2 E15.4362
G1 X105.383 Y110.7 E15.49123
G0 F3960 X105.683 Y110.7
G0 X105.683 Y110.95
G0 X104.277 Y111.457
;TYPE:SKIN
G1 F1320 X103.996 Y111.801 E15.53121
G1 X103.908 Y111.87 E15.54127
G1 X103.821 Y111.91 E15.54989
G1 X103.684 Y111.939 E15.5625
G1 X103.579 Y111.936 E15.57195
G1 X103.471 Y111.909 E15.58197
G1 X103.367 Y111.856 E15.59247
G1 X103.272 Y111.777 E15.60359
G1 X103.206 Y111.689 E15.61349
G1 X103.164 Y111.596 E15.62268
G1 X103.142 Y111.474 E15.63383
G1 X103.146 Y111.358 E15.64428
G1 X103.175 Y111.245 E15.65478
G1 X103.231 Y111.142 E15.66533
G1 X103.302 Y111.061 E15.67503
G1 X103.399 Y110.991 E15.68579
G1 X103.488 Y110.952 E15.69454
G1 X103.616 Y110.931 E15.70621
G1 X103.739 Y110.935 E15.71729
G1 X103.831 Y110.963 E15.72594
G1 X103.947 Y111.026 E15.73782
G1 X104.021 Y111.094 E15.74687
G1 X104.277 Y111.457 E15.78684
G0 F3960 X103.975 Y111.612
G1 F1320 X103.469 Y111.106 E15.85125
G0 F3960 X103.287 Y111.348
G1 F1320 X103.728 Y111.789 E15.90738
G1 X103.781 Y111.842
G0 F3960 X118.723 Y111.542
G1 F1320 X119 Y111.202 E15.94685
G1 X119.095 Y111.129 E15.95763
G1 X119.18 Y111.09 E15.96605
G1 X119.315 Y111.062 E15.97846
G1 X119.422 Y111.064 E15.98809
G1 X119.527 Y111.091 E15.99785
G1 X119.64 Y111.148 E16.00924
G1 X119.721 Y111.217 E16.01881
G1 X119.796 Y111.316 E16.02999
G1 X119.836 Y111.404 E16.03869
G1 X119.858 Y111.526 E16.04985
G1 X119.854 Y111.642 E16.06029
G1 X119.825 Y111.755 E16.07079
G1 X119.769 Y111.858 E16.08134
G1 X119.695 Y111.943 E16.09149
G1 X119.605 Y112.008 E16.10148
G1 X119.501 Y112.053 E16.11168
G1 X119.398 Y112.07 E16.12107
G1 X119.258 Y112.065 E16.13368
G1 X119.171 Y112.039 E16.14185
G1 X119.056 Y111.975 E16.1537
G1 X118.978 Y111.905 E16.16313
G1 X118.723 Y111.542 E16.20306
G0 F3960 X119.023 Y111.386
G1 F1320 X119.528 Y111.891 E16.26733
G0 F3960 X119.711 Y111.65
G1 F1320 X119.27 Y111.209 E16.32346
G1 X119.217 Y111.156
;MESH:NONMESH
G0 F3960 X105.287 Y110.885
G0 X103.785 Y110.647
;TIME_ELAPSED:12.108426
;LAYER:1
M106 S255
;MESH:link.stl
G0 F5580 X103.785 Y110.647 Z0.4
;TYPE:WALL-INNER
G1 F1560 X103.945 Y110.694 E16.32846
G1 X104.111 Y110.785 E16.33414
G1 X104.243 Y110.904 E16.33948
G1 X104.641 Y111.47 E16.36023
G1 X104.201 Y112.008 E16.38108
G1 X104.06 Y112.118 E16.38645
G1 X103.907 Y112.188 E16.3915
G1 X103.712 Y112.229 E16.39747
G1 X103.541 Y112.226 E16.40261
G1 X103.364 Y112.181 E16.40808
G1 X103.209 Y112.102 E16.4133
G1 X103.059 Y111.976 E16.41918
G1 X102.954 Y111.837 E16.42441
G1 X102.886 Y111.683 E16.42946
G1 X102.85 Y111.495 E16.4352
G1 X102.857 Y111.318 E16.44051
G1 X102.905 Y111.137 E16.44613
G1 X102.991 Y110.977 E16.45158
G1 X103.107 Y110.843 E16.4569
G1 X103.251 Y110.739 E16.46223
G1 X103.407 Y110.672 E16.46732
G1 X103.597 Y110.639 E16.4731
G1 X103.785 Y110.647 E16.47875
G0 F5580 X105.287 Y110.885
G0 X117.769 Y110.886
G0 X119.46 Y110.774
G1 F1560 X119.631 Y110.818 E16.48405
G1 X119.801 Y110.904 E16.48976
G1 X119.936 Y111.018 E16.49506
G1 X120.046 Y111.163 E16.50052
G1 X120.114 Y111.317 E16.50557
G1 X120.15 Y111.505 E16.51132
G1 X120.143 Y111.682 E16.51663
G1 X120.095 Y111.863 E16.52225
G1 X120.009 Y112.023 E16.5277
G1 X119.893 Y112.157 E16.53301
G1 X119.749 Y112.262 E16.53836
G1 X119.581 Y112.333 E16.54383
G1 X119.417 Y112.362 E16.54883
G1 X119.214 Y112.353 E16.55492
G1 X119.056 Y112.307 E16.55986
G1 X118.889 Y112.214 E16.5656
G1 X118.757 Y112.096 E16.57091
G1 X118.359 Y111.529 E16.59169
G1 X118.797 Y110.993 E16.61246
G1 X118.94 Y110.882 E16.61789
G1 X119.093 Y110.812 E16.62293
G1 X119.286 Y110.772 E16.62885
G1 X119.46 Y110.774 E16.63407
G0 F5580 X104.993 Y111.45
G1 F1560 X118.007 Y111.45 E17.02449
G1 X118.036 Y111.45 E17.02536
G1 X118.585 Y110.778 E17.05139
G1 X118.782 Y110.625 E17.05887
G1 X119.001 Y110.524 E17.06611
G1 X119.257 Y110.471 E17.07395
G1 X119.501 Y110.475 E17.08127
G1 X119.739 Y110.536 E17.08864
G1 X119.964 Y110.65 E17.09621
G1 X120.156 Y110.812 E17.10375
G1 X120.305 Y111.009 E17.11116
G1 X120.403 Y111.231 E17.11844
G1 X120.451 Y111.481 E17.12607
G1 X120.442 Y111.728 E17.13349
G1 X120.376 Y111.973 E17.1411
G1 X120.259 Y112.193 E17.14858
G1 X120.097 Y112.379 E17.15598
G1 X119.898 Y112.524 E17.16336
G1 X119.667 Y112.622 E17.17089
G1 X119.434 Y112.664 E17.17799
G1 X119.166 Y112.651 E17.18604
G1 X118.939 Y112.585 E17.19313
G1 X118.714 Y112.461 E17.20084
G1 X118.534 Y112.3 E17.20809
G1 X118.007 Y111.55 E17.23559
G1 X104.993 Y111.55 E17.36573
G1 X104.963 Y111.55 E17.36663
G1 X104.411 Y112.225 E17.39278
G1 X104.218 Y112.375 E17.40012
G1 X103.999 Y112.476 E17.40735
G1 X103.742 Y112.529 E17.41522
G1 X103.5 Y112.526 E17.42249
G1 X103.258 Y112.464 E17.42998
G1 X103.041 Y112.353 E17.43729
G1 X102.841 Y112.185 E17.44513
G1 X102.695 Y111.991 E17.45241
G1 X102.597 Y111.769 E17.45969
G1 X102.549 Y111.519 E17.46733
G1 X102.558 Y111.272 E17.47474
G1 X102.624 Y111.027 E17.48236
G1 X102.741 Y110.807 E17.48983
G1 X102.903 Y110.621 E17.49723
G1 X103.102 Y110.476 E17.50462
G1 X103.324 Y110.382 E17.51185
G1 X103.577 Y110.338 E17.51955
G1 X103.835 Y110.349 E17.5273
G1 X104.059 Y110.415 E17.53431
G1 X104.287 Y110.54 E17.54211
G1 X104.466 Y110.7 E17.54931
G1 X104.993 Y111.45 E17.57681
G0 F5580 X105.149 Y111.15
G1 F1560 X117.894 Y111.15 E17.95916
G1 X118.374 Y110.562 E17.98193
G1 X118.624 Y110.368 E17.99142
G1 X118.908 Y110.237 E18.00081
G1 X119.228 Y110.17 E18.01061
G1 X119.542 Y110.176 E18.02004
G1 X119.847 Y110.254 E18.02948
G1 X120.127 Y110.396 E18.0389
G1 X120.376 Y110.606 E18.04867
G1 X120.565 Y110.856 E18.05807
G1 X120.692 Y111.142 E18.06746
G1 X120.752 Y111.457 E18.07708
G1 X120.741 Y111.773 E18.08657
G1 X120.658 Y112.082 E18.09617
G1 X120.507 Y112.364 E18.10576
G1 X120.302 Y112.601 E18.11516
G1 X120.047 Y112.787 E18.12463
G1 X119.754 Y112.911 E18.13418
G1 X119.449 Y112.965 E18.14347
G1 X119.119 Y112.949 E18.15338
G1 X118.821 Y112.863 E18.16268
G1 X118.539 Y112.708 E18.17234
G1 X118.309 Y112.501 E18.18162
G1 X117.851 Y111.85 E18.2055
G1 X105.105 Y111.85 E18.58788
G1 X104.624 Y112.44 E18.61072
G1 X104.376 Y112.632 E18.62013
G1 X104.092 Y112.763 E18.62951
G1 X103.772 Y112.83 E18.63932
G1 X103.459 Y112.825 E18.64871
G1 X103.154 Y112.747 E18.65815
G1 X102.872 Y112.603 E18.66765
G1 X102.622 Y112.393 E18.67745
G1 X102.435 Y112.144 E18.68679
G1 X102.308 Y111.858 E18.69618
G1 X102.248 Y111.543 E18.7058
G1 X102.259 Y111.227 E18.71528
G1 X102.342 Y110.918 E18.72488
G1 X102.493 Y110.636 E18.73448
G1 X102.698 Y110.399 E18.74388
G1 X102.953 Y110.213 E18.75335
G1 X103.242 Y110.091 E18.76276
G1 X103.557 Y110.036 E18.77235
G1 X103.883 Y110.051 E18.78214
G1 X104.174 Y110.136 E18.79124
G1 X104.463 Y110.294 E18.80112
G1 X104.691 Y110.499 E18.81032
G1 X105.149 Y111.15 E18.83419
G0 F5580 X105.305 Y110.85
G1 F1560 X117.752 Y110.85 E19.2076
G1 X118.164 Y110.346 E19.22713
G1 X118.468 Y110.109 E19.2387
G1 X118.814 Y109.95 E19.25012
G1 X119.198 Y109.869 E19.26189
G1 X119.583 Y109.877 E19.27345
G1 X119.951 Y109.97 E19.28483
G1 X120.296 Y110.146 E19.29645
G1 X120.595 Y110.397 E19.30816
G1 X120.825 Y110.703 E19.31965
G1 X120.981 Y111.053 E19.33114
G1 X121.053 Y111.433 E19.34275
G1 X121.04 Y111.818 E19.3543
G1 X120.939 Y112.193 E19.36596
G1 X120.757 Y112.534 E19.37755
G1 X120.506 Y112.823 E19.38903
G1 X120.196 Y113.049 E19.40054
G1 X119.84 Y113.2 E19.41214
G1 X119.464 Y113.266 E19.4236
G1 X119.073 Y113.247 E19.43534
G1 X118.703 Y113.141 E19.44689
G1 X118.367 Y112.956 E19.45839
G1 X118.082 Y112.7 E19.46989
G1 X117.695 Y112.15 E19.49006
G1 X105.247 Y112.15 E19.8635
G1 X104.834 Y112.656 E19.8831
G1 X104.532 Y112.891 E19.89458
G1 X104.186 Y113.05 E19.906
G1 X103.802 Y113.131 E19.91777
G1 X103.418 Y113.124 E19.9293
G1 X103.048 Y113.03 E19.94075
G1 X102.704 Y112.854 E19.95234
G1 X102.405 Y112.603 E19.96405
G1 X102.175 Y112.297 E19.97554
G1 X102.019 Y111.947 E19.98703
G1 X101.947 Y111.567 E19.99863
G1 X101.96 Y111.182 E20.01019
G1 X102.061 Y110.807 E20.02184
G1 X102.243 Y110.466 E20.03344
G1 X102.494 Y110.177 E20.04492
G1 X102.804 Y109.951 E20.05643
G1 X103.16 Y109.8 E20.06803
G1 X103.537 Y109.734 E20.07951
G1 X103.93 Y109.753 E20.09132
G1 X104.29 Y109.857 E20.10256
G1 X104.636 Y110.047 E20.1144
G1 X104.918 Y110.3 E20.12577
G1 X105.305 Y110.85 E20.14594
G0 F5580 X105.383 Y110.7
;TYPE:WALL-OUTER
G1 F1230 X117.681 Y110.7 E20.51488
G1 X118.058 Y110.239 E20.53275
G1 X118.391 Y109.98 E20.5454
G1 X118.768 Y109.806 E20.55786
G1 X119.183 Y109.719 E20.57058
G1 X119.601 Y109.727 E20.58312
G1 X120.007 Y109.83 E20.59569
G1 X120.38 Y110.02 E20.60825
