;FLAVOR:UltiGCode
;TIME:24143
;MATERIAL:40477
;MATERIAL2:0
;NOZZLE_DIAMETER:0.4
;Generated with Cura_SteamEngine 4.0.0
M82 ;absolute extrusion mode

G92 E0
G10
;LAYER_COUNT:15
;LAYER:0
M107
G0 F4320 X10.265 Y52.978 Z0.27
;TYPE:SKIRT
G11
G1 F1800 X11.051 Y52.875 E0.07491
G1 X11.679 Y52.85 E0.13431
G1 X211.321 Y52.85 E19.00047
G1 X212.113 Y52.89 E19.07541
G1 X212.898 Y53.009 E19.15044
G1 X213.666 Y53.207 E19.22539
G1 X214.411 Y53.482 E19.30044
G1 X215.124 Y53.829 E19.37537
G1 X215.799 Y54.247 E19.4504
G1 X216.428 Y54.73 E19.52534
G1 X216.889 Y55.157 E19.58472
G1 X216.992 Y55.26 E19.59849
G1 X217.525 Y55.848 E19.67349
G1 X217.995 Y56.487 E19.74845
G1 X218.398 Y57.171 E19.82347
G1 X218.731 Y57.891 E19.89844
G1 X218.989 Y58.641 E19.97339
G1 X219.171 Y59.414 E20.04843
G1 X219.274 Y60.2 E20.12334
G1 X219.299 Y60.828 E20.18274
G1 X219.299 Y162.172 E29.75975
G1 X219.259 Y162.964 E29.83469
G1 X219.14 Y163.749 E29.90972
G1 X218.942 Y164.517 E29.98466
G1 X218.667 Y165.262 E30.05971
G1 X218.32 Y165.975 E30.13464
G1 X217.902 Y166.65 E30.20967
G1 X217.419 Y167.279 E30.28462
G1 X216.992 Y167.74 E30.344
G1 X216.889 Y167.843 E30.35776
G1 X216.301 Y168.376 E30.43276
G1 X215.662 Y168.846 E30.50772
G1 X214.978 Y169.249 E30.58274
G1 X214.258 Y169.582 E30.65771
G1 X213.508 Y169.84 E30.73266
G1 X212.735 Y170.022 E30.8077
G1 X211.949 Y170.125 E30.88262
G1 X211.321 Y170.15 E30.94201
G1 X11.679 Y170.15 E49.80818
G1 X10.887 Y170.11 E49.88312
G1 X10.102 Y169.991 E49.95815
G1 X9.334 Y169.793 E50.0331
G1 X8.589 Y169.518 E50.10814
G1 X7.876 Y169.171 E50.18308
G1 X7.201 Y168.753 E50.2581
G1 X6.572 Y168.27 E50.33305
G1 X6.111 Y167.843 E50.39243
G1 X6.008 Y167.74 E50.40619
G1 X5.475 Y167.152 E50.48119
G1 X5.005 Y166.513 E50.55615
G1 X4.602 Y165.829 E50.63117
G1 X4.269 Y165.109 E50.70614
G1 X4.011 Y164.359 E50.78109
G1 X3.829 Y163.586 E50.85614
G1 X3.726 Y162.8 E50.93105
G1 X3.701 Y162.172 E50.99044
G1 X3.701 Y60.828 E60.56745
G1 X3.741 Y60.036 E60.64239
G1 X3.86 Y59.251 E60.71742
G1 X4.058 Y58.483 E60.79237
G1 X4.333 Y57.738 E60.86741
G1 X4.68 Y57.025 E60.94235
G1 X5.098 Y56.35 E61.01738
G1 X5.581 Y55.721 E61.09232
G1 X6.008 Y55.26 E61.1517
G1 X6.111 Y55.157 E61.16547
G1 X6.699 Y54.624 E61.24046
G1 X7.338 Y54.154 E61.31542
G1 X8.022 Y53.751 E61.39045
G1 X8.742 Y53.418 E61.46541
G1 X9.492 Y53.16 E61.54036
G1 X10.265 Y52.978 E61.61541
G0 F4320 X10.431 Y53.304
G1 F1800 X11.201 Y53.215 E61.68866
G1 X11.679 Y53.2 E61.73385
G1 X211.321 Y53.2 E80.60002
G1 X212.096 Y53.24 E80.67336
G1 X212.862 Y53.359 E80.74661
G1 X213.612 Y53.557 E80.81991
G1 X214.338 Y53.831 E80.89324
G1 X215.031 Y54.178 E80.96648
G1 X215.685 Y54.595 E81.03978
G1 X216.293 Y55.077 E81.1131
G1 X216.642 Y55.404 E81.1583
G1 X216.745 Y55.507 E81.17206
G1 X217.264 Y56.083 E81.24533
G1 X217.722 Y56.709 E81.31863
G1 X218.112 Y57.38 E81.39197
G1 X218.432 Y58.086 E81.46522
G1 X218.677 Y58.822 E81.53853
G1 X218.845 Y59.58 E81.6119
G1 X218.934 Y60.35 E81.68515
G1 X218.949 Y60.828 E81.73034
G1 X218.949 Y162.172 E91.30735
G1 X218.909 Y162.947 E91.38068
G1 X218.79 Y163.713 E91.45394
G1 X218.592 Y164.463 E91.52724
G1 X218.318 Y165.189 E91.60057
G1 X217.971 Y165.882 E91.67381
G1 X217.554 Y166.536 E91.74711
G1 X217.072 Y167.144 E91.82043
G1 X216.745 Y167.493 E91.86562
G1 X216.642 Y167.596 E91.87939
G1 X216.066 Y168.115 E91.95266
G1 X215.44 Y168.573 E92.02596
G1 X214.769 Y168.963 E92.0993
G1 X214.063 Y169.283 E92.17255
G1 X213.327 Y169.528 E92.24585
G1 X212.569 Y169.696 E92.31922
G1 X211.799 Y169.785 E92.39247
G1 X211.321 Y169.8 E92.43767
G1 X11.679 Y169.8 E111.30383
G1 X10.904 Y169.76 E111.37717
G1 X10.138 Y169.641 E111.45042
G1 X9.388 Y169.443 E111.52373
G1 X8.662 Y169.169 E111.59706
G1 X7.969 Y168.822 E111.6703
G1 X7.315 Y168.405 E111.7436
G1 X6.707 Y167.923 E111.81692
G1 X6.358 Y167.596 E111.86211
G1 X6.255 Y167.493 E111.87588
G1 X5.736 Y166.917 E111.94914
G1 X5.278 Y166.291 E112.02244
G1 X4.888 Y165.62 E112.09579
G1 X4.568 Y164.914 E112.16904
G1 X4.323 Y164.178 E112.24234
G1 X4.155 Y163.42 E112.31571
G1 X4.066 Y162.65 E112.38896
G1 X4.051 Y162.172 E112.43415
G1 X4.051 Y60.828 E122.01116
G1 X4.091 Y60.053 E122.0845
G1 X4.21 Y59.287 E122.15775
G1 X4.408 Y58.537 E122.23105
G1 X4.682 Y57.811 E122.30439
G1 X5.029 Y57.118 E122.37762
G1 X5.446 Y56.464 E122.45092
G1 X5.928 Y55.856 E122.52424
G1 X6.255 Y55.507 E122.56944
G1 X6.358 Y55.404 E122.5832
G1 X6.934 Y54.885 E122.65647
G1 X7.56 Y54.427 E122.72977
G1 X8.231 Y54.037 E122.80311
G1 X8.937 Y53.717 E122.87636
G1 X9.673 Y53.472 E122.94967
G1 X10.431 Y53.304 E123.02304
G0 F4320 X10.594 Y53.632
G1 F1800 X11.679 Y53.55 E123.12586
G1 X211.321 Y53.55 E141.99203
G1 X212.077 Y53.59 E142.06357
G1 X212.825 Y53.709 E142.13515
G1 X213.556 Y53.907 E142.20672
G1 X214.263 Y54.181 E142.27837
G1 X214.936 Y54.527 E142.34988
G1 X215.569 Y54.943 E142.42146
G1 X216.394 Y55.652 E142.52426
G1 X216.497 Y55.755 E142.53802
G1 X217.004 Y56.318 E142.60962
G1 X217.448 Y56.931 E142.68115
G1 X217.826 Y57.588 E142.75278
G1 X218.132 Y58.28 E142.82428
G1 X218.363 Y59.002 E142.89592
G1 X218.517 Y59.743 E142.96744
G1 X218.599 Y60.828 E143.07026
G1 X218.599 Y162.172 E152.64727
G1 X218.559 Y162.928 E152.71881
G1 X218.44 Y163.676 E152.79039
G1 X218.242 Y164.407 E152.86195
G1 X217.968 Y165.114 E152.93361
G1 X217.622 Y165.787 E153.00512
G1 X217.206 Y166.42 E153.0767
G1 X216.497 Y167.245 E153.1795
G1 X216.394 Y167.348 E153.19326
G1 X215.831 Y167.855 E153.26486
G1 X215.218 Y168.299 E153.33639
G1 X214.561 Y168.677 E153.40801
G1 X213.869 Y168.983 E153.47952
G1 X213.147 Y169.214 E153.55115
G1 X212.406 Y169.368 E153.62267
G1 X211.321 Y169.45 E153.7255
G1 X11.679 Y169.45 E172.59167
G1 X10.923 Y169.41 E172.66321
G1 X10.175 Y169.291 E172.73478
G1 X9.444 Y169.093 E172.80635
G1 X8.737 Y168.819 E172.87801
G1 X8.064 Y168.473 E172.94952
G1 X7.431 Y168.057 E173.0211
G1 X6.606 Y167.348 E173.1239
G1 X6.503 Y167.245 E173.13766
G1 X5.996 Y166.682 E173.20926
G1 X5.552 Y166.069 E173.28078
G1 X5.174 Y165.412 E173.35241
G1 X4.868 Y164.72 E173.42392
G1 X4.637 Y163.998 E173.49555
G1 X4.483 Y163.257 E173.56707
G1 X4.401 Y162.172 E173.6699
G1 X4.401 Y60.828 E183.24691
G1 X4.441 Y60.072 E183.31845
G1 X4.56 Y59.324 E183.39002
G1 X4.758 Y58.593 E183.46159
G1 X5.032 Y57.886 E183.53324
G1 X5.378 Y57.213 E183.60476
G1 X5.794 Y56.58 E183.67634
G1 X6.503 Y55.755 E183.77913
G1 X6.606 Y55.652 E183.7929
G1 X7.169 Y55.145 E183.8645
G1 X7.782 Y54.701 E183.93602
G1 X8.439 Y54.323 E184.00765
G1 X9.131 Y54.017 E184.07915
G1 X9.853 Y53.786 E184.15079
G1 X10.594 Y53.632 E184.22231
G0 F4320 X10.756 Y53.963
G1 F1800 X11.679 Y53.9 E184.30974
G1 X211.321 Y53.9 E203.17591
G1 X212.059 Y53.94 E203.24575
G1 X212.787 Y54.059 E203.31546
G1 X213.499 Y54.257 E203.3853
G1 X214.185 Y54.53 E203.45507
G1 X214.838 Y54.876 E203.5249
G1 X215.45 Y55.29 E203.59473
G1 X216.147 Y55.899 E203.68219
G1 X216.25 Y56.002 E203.69596
G1 X216.743 Y56.552 E203.76576
G1 X217.174 Y57.152 E203.83557
G1 X217.538 Y57.795 E203.9054
G1 X217.83 Y58.473 E203.97516
G1 X218.047 Y59.179 E204.04495
G1 X218.186 Y59.905 E204.11481
G1 X218.249 Y60.828 E204.20223
G1 X218.249 Y162.172 E213.77924
G1 X218.209 Y162.91 E213.84908
G1 X218.09 Y163.638 E213.91879
G1 X217.892 Y164.35 E213.98863
G1 X217.619 Y165.036 E214.0584
G1 X217.273 Y165.689 E214.12824
G1 X216.859 Y166.301 E214.19806
G1 X216.25 Y166.998 E214.28553
G1 X216.147 Y167.101 E214.29929
G1 X215.597 Y167.594 E214.36909
G1 X214.997 Y168.025 E214.43891
G1 X214.354 Y168.389 E214.50873
G1 X213.676 Y168.681 E214.57849
G1 X212.97 Y168.898 E214.64829
G1 X212.244 Y169.037 E214.71814
G1 X211.321 Y169.1 E214.80557
G1 X11.679 Y169.1 E233.67174
G1 X10.941 Y169.06 E233.74158
G1 X10.213 Y168.941 E233.81129
G1 X9.501 Y168.743 E233.88113
G1 X8.815 Y168.47 E233.9509
G1 X8.162 Y168.124 E234.02073
G1 X7.55 Y167.71 E234.09056
G1 X6.853 Y167.101 E234.17802
G1 X6.75 Y166.998 E234.19179
G1 X6.257 Y166.448 E234.26159
G1 X5.826 Y165.848 E234.3314
G1 X5.462 Y165.205 E234.40122
G1 X5.17 Y164.527 E234.47099
G1 X4.953 Y163.821 E234.54078
G1 X4.814 Y163.095 E234.61064
G1 X4.751 Y162.172 E234.69806
G1 X4.751 Y60.828 E244.27507
G1 X4.791 Y60.09 E244.34491
G1 X4.91 Y59.362 E244.41462
G1 X5.108 Y58.65 E244.48446
G1 X5.381 Y57.964 E244.55423
G1 X5.727 Y57.311 E244.62407
G1 X6.141 Y56.699 E244.69389
G1 X6.75 Y56.002 E244.78136
G1 X6.853 Y55.899 E244.79512
G1 X7.403 Y55.406 E244.86492
G1 X8.003 Y54.975 E244.93473
G1 X8.646 Y54.611 E245.00456
G1 X9.324 Y54.319 E245.07432
G1 X10.03 Y54.102 E245.14412
G1 X10.756 Y53.963 E245.21397
G0 F4320 X10.206 Y54.42
G1 F1800 X10.914 Y54.295 E245.28191
G1 X11.679 Y54.25 E245.35433
G1 X211.321 Y54.25 E264.2205
G1 X212.039 Y54.29 E264.28845
G1 X212.749 Y54.409 E264.35648
G1 X213.441 Y54.607 E264.4245
G1 X214.106 Y54.88 E264.49243
G1 X214.738 Y55.225 E264.56048
G1 X215.327 Y55.638 E264.62846
G1 X215.9 Y56.146 E264.70082
G1 X216.003 Y56.249 E264.71459
G1 X216.482 Y56.786 E264.78259
G1 X216.899 Y57.372 E264.85056
G1 X217.249 Y58.001 E264.91858
G1 X217.527 Y58.664 E264.98652
G1 X217.729 Y59.355 E265.05455
G1 X217.854 Y60.063 E265.12249
G1 X217.899 Y60.828 E265.19491
G1 X217.899 Y162.172 E274.77192
G1 X217.859 Y162.89 E274.83987
G1 X217.74 Y163.6 E274.9079
G1 X217.542 Y164.292 E274.97592
G1 X217.269 Y164.957 E275.04385
G1 X216.924 Y165.589 E275.1119
G1 X216.511 Y166.178 E275.17988
G1 X216.003 Y166.751 E275.25224
G1 X215.9 Y166.854 E275.26601
G1 X215.363 Y167.333 E275.33401
G1 X214.777 Y167.75 E275.40197
G1 X214.148 Y168.1 E275.47
G1 X213.485 Y168.378 E275.53794
G1 X212.794 Y168.58 E275.60597
G1 X212.086 Y168.705 E275.67391
G1 X211.321 Y168.75 E275.74633
G1 X11.679 Y168.75 E294.6125
G1 X10.961 Y168.71 E294.68045
G1 X10.251 Y168.591 E294.74848
G1 X9.559 Y168.393 E294.8165
G1 X8.894 Y168.12 E294.88443
G1 X8.262 Y167.775 E294.95248
G1 X7.673 Y167.362 E295.02046
G1 X7.1 Y166.854 E295.09282
G1 X6.997 Y166.751 E295.10659
G1 X6.518 Y166.214 E295.17459
G1 X6.101 Y165.628 E295.24255
G1 X5.751 Y164.999 E295.31058
G1 X5.473 Y164.336 E295.37852
G1 X5.271 Y163.645 E295.44655
G1 X5.146 Y162.937 E295.51449
G1 X5.101 Y162.172 E295.58691
G1 X5.101 Y60.828 E305.16391
G1 X5.141 Y60.11 E305.23187
G1 X5.26 Y59.4 E305.2999
G1 X5.458 Y58.708 E305.36792
G1 X5.731 Y58.043 E305.43585
G1 X6.076 Y57.411 E305.50389
G1 X6.489 Y56.822 E305.57188
G1 X6.997 Y56.249 E305.64424
G1 X7.1 Y56.146 E305.658
G1 X7.637 Y55.667 E305.72601
G1 X8.223 Y55.25 E305.79397
G1 X8.852 Y54.9 E305.862
G1 X9.515 Y54.622 E305.92993
G1 X10.206 Y54.42 E305.99797
G0 F4320 X10.379 Y54.74
G1 F1800 X11.07 Y54.63 E306.06409
G1 X11.679 Y54.6 E306.12171
G1 X211.321 Y54.6 E324.98788
G1 X212.02 Y54.64 E325.05404
G1 X212.709 Y54.759 E325.12012
G1 X213.38 Y54.957 E325.18623
G1 X214.025 Y55.229 E325.25238
G1 X214.634 Y55.573 E325.31848
G1 X215.2 Y55.985 E325.38463
G1 X215.652 Y56.394 E325.44224
G1 X215.755 Y56.497 E325.456
G1 X216.221 Y57.019 E325.52213
G1 X216.624 Y57.591 E325.58825
G1 X216.959 Y58.205 E325.65435
G1 X217.222 Y58.854 E325.72052
G1 X217.409 Y59.528 E325.78662
G1 X217.519 Y60.219 E325.85274
G1 X217.549 Y60.828 E325.91036
G1 X217.549 Y162.172 E335.48737
G1 X217.509 Y162.871 E335.55354
G1 X217.39 Y163.56 E335.61961
G1 X217.192 Y164.231 E335.68572
G1 X216.92 Y164.876 E335.75187
G1 X216.576 Y165.485 E335.81797
G1 X216.164 Y166.051 E335.88413
G1 X215.755 Y166.503 E335.94173
G1 X215.652 Y166.606 E335.9555
G1 X215.13 Y167.072 E336.02162
G1 X214.558 Y167.475 E336.08775
G1 X213.944 Y167.81 E336.15384
G1 X213.295 Y168.073 E336.22002
G1 X212.621 Y168.26 E336.28612
G1 X211.93 Y168.37 E336.35224
G1 X211.321 Y168.4 E336.40986
G1 X11.679 Y168.4 E355.27603
G1 X10.98 Y168.36 E355.34219
G1 X10.291 Y168.241 E355.40827
G1 X9.62 Y168.043 E355.47438
G1 X8.975 Y167.771 E355.54053
G1 X8.366 Y167.427 E355.60663
G1 X7.8 Y167.015 E355.67278
G1 X7.348 Y166.606 E355.73039
G1 X7.245 Y166.503 E355.74415
G1 X6.779 Y165.981 E355.81028
G1 X6.376 Y165.409 E355.8764
G1 X6.041 Y164.795 E355.9425
G1 X5.778 Y164.146 E356.00867
G1 X5.591 Y163.472 E356.07477
G1 X5.481 Y162.781 E356.1409
G1 X5.451 Y162.172 E356.19852
G1 X5.451 Y60.828 E365.77552
G1 X5.491 Y60.129 E365.84169
G1 X5.61 Y59.44 E365.90776
G1 X5.808 Y58.769 E365.97387
G1 X6.08 Y58.124 E366.04002
G1 X6.424 Y57.515 E366.10612
G1 X6.836 Y56.949 E366.17228
G1 X7.245 Y56.497 E366.22988
G1 X7.348 Y56.394 E366.24365
G1 X7.87 Y55.928 E366.30977
G1 X8.442 Y55.525 E366.3759
G1 X9.056 Y55.19 E366.44199
G1 X9.705 Y54.927 E366.50817
G1 X10.379 Y54.74 E366.57427
G0 F4320 X10.55 Y55.061
G1 F1800 X11.223 Y54.968 E366.63847
G1 X11.679 Y54.95 E366.6816
G1 X211.321 Y54.95 E385.54777
G1 X211.999 Y54.99 E385.61195
G1 X212.668 Y55.109 E385.67616
G1 X213.318 Y55.306 E385.74035
G1 X213.941 Y55.578 E385.80459
G1 X214.527 Y55.922 E385.8688
G1 X215.069 Y56.332 E385.93302
G1 X215.405 Y56.641 E385.97616
G1 X215.508 Y56.744 E385.98992
G1 X215.959 Y57.252 E386.05412
G1 X216.347 Y57.81 E386.11835
G1 X216.668 Y58.409 E386.18257
G1 X216.916 Y59.041 E386.24672
G1 X217.088 Y59.699 E386.31099
G1 X217.181 Y60.372 E386.3752
G1 X217.199 Y60.828 E386.41832
G1 X217.199 Y162.172 E395.99533
G1 X217.159 Y162.85 E396.05951
G1 X217.04 Y163.519 E396.12373
G1 X216.843 Y164.169 E396.18791
G1 X216.571 Y164.792 E396.25215
G1 X216.227 Y165.378 E396.31636
G1 X215.817 Y165.92 E396.38059
G1 X215.508 Y166.256 E396.42372
G1 X215.405 Y166.359 E396.43749
G1 X214.897 Y166.81 E396.50169
G1 X214.339 Y167.198 E396.56591
G1 X213.74 Y167.519 E396.63013
G1 X213.108 Y167.767 E396.69429
G1 X212.45 Y167.939 E396.75856
G1 X211.777 Y168.032 E396.82276
G1 X211.321 Y168.05 E396.86589
G1 X11.679 Y168.05 E415.73206
G1 X11.001 Y168.01 E415.79624
G1 X10.332 Y167.891 E415.86045
G1 X9.682 Y167.694 E415.92464
G1 X9.059 Y167.422 E415.98888
G1 X8.473 Y167.078 E416.05309
G1 X7.931 Y166.668 E416.11731
G1 X7.595 Y166.359 E416.16045
G1 X7.492 Y166.256 E416.17422
G1 X7.041 Y165.748 E416.23841
G1 X6.653 Y165.19 E416.30264
G1 X6.332 Y164.591 E416.36686
G1 X6.084 Y163.959 E416.43102
G1 X5.912 Y163.301 E416.49529
G1 X5.819 Y162.628 E416.55949
G1 X5.801 Y162.172 E416.60261
G1 X5.801 Y60.828 E426.17962
G1 X5.841 Y60.15 E426.2438
G1 X5.96 Y59.481 E426.30802
G1 X6.157 Y58.831 E426.3722
G1 X6.429 Y58.208 E426.43644
G1 X6.773 Y57.622 E426.50066
G1 X7.183 Y57.08 E426.56488
G1 X7.492 Y56.744 E426.60802
G1 X7.595 Y56.641 E426.62178
G1 X8.103 Y56.19 E426.68598
G1 X8.661 Y55.802 E426.7502
G1 X9.26 Y55.481 E426.81442
G1 X9.892 Y55.233 E426.87858
G1 X10.55 Y55.061 E426.94285
G0 F4320 X10.718 Y55.386
G1 F1800 X11.679 Y55.3 E427.03403
G1 X211.321 Y55.3 E445.9002
G1 X211.978 Y55.34 E445.9624
G1 X212.626 Y55.459 E446.02466
G1 X213.254 Y55.656 E446.08686
G1 X213.854 Y55.928 E446.14911
G1 X214.417 Y56.27 E446.21136
G1 X215.157 Y56.889 E446.30253
G1 X215.26 Y56.992 E446.3163
G1 X215.697 Y57.485 E446.37855
G1 X216.07 Y58.027 E446.44073
G1 X216.375 Y58.611 E446.50299
G1 X216.607 Y59.227 E446.56519
G1 X216.763 Y59.867 E446.62744
G1 X216.849 Y60.828 E446.71862
G1 X216.849 Y162.172 E456.29563
G1 X216.809 Y162.829 E456.35783
G1 X216.69 Y163.477 E456.42009
G1 X216.493 Y164.105 E456.48229
G1 X216.221 Y164.705 E456.54454
G1 X215.879 Y165.268 E456.60679
G1 X215.26 Y166.008 E456.69796
G1 X215.157 Y166.111 E456.71173
G1 X214.664 Y166.548 E456.77399
G1 X214.122 Y166.921 E456.83616
G1 X213.538 Y167.226 E456.89842
G1 X212.922 Y167.458 E456.96063
G1 X212.282 Y167.614 E457.02288
G1 X211.321 Y167.7 E457.11405
G1 X11.679 Y167.7 E475.98022
G1 X11.022 Y167.66 E476.04242
G1 X10.374 Y167.541 E476.10468
G1 X9.746 Y167.344 E476.16688
G1 X9.146 Y167.072 E476.22914
G1 X8.583 Y166.73 E476.29139
G1 X7.843 Y166.111 E476.38256
G1 X7.74 Y166.008 E476.39632
G1 X7.303 Y165.515 E476.45858
G1 X6.93 Y164.973 E476.52075
G1 X6.625 Y164.389 E476.58302
G1 X6.393 Y163.773 E476.64522
G1 X6.237 Y163.133 E476.70747
G1 X6.151 Y162.172 E476.79865
G1 X6.151 Y60.828 E486.37566
G1 X6.191 Y60.171 E486.43786
G1 X6.31 Y59.523 E486.50012
G1 X6.507 Y58.895 E486.56231
G1 X6.779 Y58.295 E486.62457
G1 X7.121 Y57.732 E486.68682
G1 X7.74 Y56.992 E486.77799
G1 X7.843 Y56.889 E486.79175
G1 X8.336 Y56.452 E486.85401
G1 X8.878 Y56.079 E486.91619
G1 X9.462 Y55.774 E486.97845
G1 X10.078 Y55.542 E487.04065
G1 X10.718 Y55.386 E487.1029
