;FLAVOR:UltiGCode
;TIME:18325
;MATERIAL:41293
;MATERIAL2:0
;NOZZLE_DIAMETER:0.6
;Generated with Cura_SteamEngine 4.0.0
M82 ;absolute extrusion mode

G92 E0
G10
;LAYER_COUNT:44
;LAYER:0
M107
G0 F3908.6 X58.703 Y38.943 Z0.4
;TYPE:SKIRT
G11
G1 F2280 X59.188 Y38.293 E0.17193
G1 X59.71 Y37.719 E0.33642
G1 X59.982 Y37.447 E0.41796
G1 X60.583 Y36.903 E0.58982
G1 X61.234 Y36.421 E0.76154
G1 X61.93 Y36.005 E0.93344
G1 X62.663 Y35.66 E1.10519
G1 X63.427 Y35.389 E1.27705
G1 X64.213 Y35.194 E1.44873
G1 X65.015 Y35.078 E1.62052
G1 X65.791 Y35.041 E1.78522
G1 X67.464 Y35.041 E2.1399
G1 X68.273 Y35.081 E2.31162
G1 X68.885 Y35.173 E2.44282
G1 X68.903 Y35.142 E2.45042
G1 X69.388 Y34.492 E2.62235
G1 X69.891 Y33.937 E2.78114
G1 X70.045 Y33.782 E2.82746
G1 X70.644 Y33.236 E2.99929
G1 X71.294 Y32.752 E3.1711
G1 X71.988 Y32.334 E3.34285
G1 X72.72 Y31.986 E3.51468
G1 X73.483 Y31.712 E3.68655
G1 X74.269 Y31.515 E3.85833
G1 X75.071 Y31.396 E4.03022
G1 X75.846 Y31.357 E4.19473
G1 X95.469 Y31.293 E8.35483
G1 X96.279 Y31.33 E8.52672
G1 X97.081 Y31.447 E8.69855
G1 X97.801 Y31.627 E8.85589
G1 X98.269 Y31.16 E8.99605
G1 X98.896 Y30.647 E9.16779
G1 X99.571 Y30.199 E9.33954
G1 X100.287 Y29.819 E9.51139
G1 X101.037 Y29.511 E9.68328
G1 X101.814 Y29.279 E9.85519
G1 X102.609 Y29.124 E10.0269
G1 X103.776 Y29.041 E10.27493
G1 X127.591 Y29.041 E15.32371
G1 X128.4 Y29.081 E15.49543
G1 X129.202 Y29.201 E15.66734
G1 X129.988 Y29.398 E15.83913
G1 X130.75 Y29.673 E16.01087
G1 X131.482 Y30.021 E16.1827
G1 X132.176 Y30.44 E16.35456
G1 X132.826 Y30.925 E16.52649
G1 X133.424 Y31.471 E16.69816
G1 X133.565 Y31.627 E16.74274
G1 X134.268 Y31.451 E16.89638
G1 X135.07 Y31.332 E17.06826
G1 X135.899 Y31.293 E17.24421
G1 X155.522 Y31.357 E21.40431
G1 X156.331 Y31.4 E21.57606
G1 X157.132 Y31.522 E21.74783
G1 X157.918 Y31.722 E21.91977
G1 X158.679 Y31.999 E22.09145
G1 X159.41 Y32.35 E22.26337
G1 X160.102 Y32.771 E22.43509
G1 X160.75 Y33.258 E22.60693
G1 X161.323 Y33.782 E22.77155
G1 X161.477 Y33.937 E22.81787
G1 X162.019 Y34.539 E22.9896
G1 X162.485 Y35.173 E23.15641
G1 X162.719 Y35.127 E23.20696
G1 X163.903 Y35.041 E23.45863
G1 X165.577 Y35.041 E23.81352
G1 X166.386 Y35.081 E23.98524
G1 X167.188 Y35.201 E24.15715
G1 X167.974 Y35.398 E24.32894
G1 X168.736 Y35.673 E24.50068
G1 X169.468 Y36.021 E24.67251
G1 X170.162 Y36.44 E24.84437
G1 X170.812 Y36.925 E25.01631
G1 X171.386 Y37.447 E25.18079
G1 X171.658 Y37.719 E25.26234
G1 X172.202 Y38.32 E25.43419
G1 X172.684 Y38.971 E25.60592
G1 X173.1 Y39.667 E25.77782
G1 X173.445 Y40.4 E25.94956
G1 X173.716 Y41.164 E26.12142
G1 X173.911 Y41.95 E26.2931
G1 X174.027 Y42.752 E26.4649
G1 X174.064 Y43.528 E26.6296
G1 X174.064 Y105.414 E39.74943
G1 X174.024 Y106.223 E39.92115
G1 X173.904 Y107.025 E40.09306
G1 X173.707 Y107.811 E40.26485
G1 X173.432 Y108.573 E40.43659
G1 X173.084 Y109.305 E40.60842
G1 X172.665 Y109.999 E40.78028
G1 X172.18 Y110.649 E40.95221
G1 X171.836 Y111.027 E41.06057
G1 X172.077 Y111.431 E41.1603
G1 X172.422 Y112.164 E41.33204
G1 X172.693 Y112.928 E41.5039
G1 X172.888 Y113.714 E41.67558
G1 X173.004 Y114.516 E41.84738
G1 X173.041 Y115.292 E42.01208
G1 X173.041 Y177.158 E55.12767
G1 X173.001 Y177.967 E55.29939
G1 X172.881 Y178.769 E55.4713
G1 X172.684 Y179.555 E55.64309
G1 X172.409 Y180.317 E55.81483
G1 X172.061 Y181.049 E55.98666
G1 X171.642 Y181.743 E56.15852
G1 X171.157 Y182.393 E56.33046
G1 X170.635 Y182.967 E56.49494
G1 X170.353 Y183.249 E56.57948
G1 X169.752 Y183.793 E56.75134
G1 X169.101 Y184.275 E56.92306
G1 X168.405 Y184.691 E57.09496
G1 X167.672 Y185.036 E57.26671
G1 X166.908 Y185.307 E57.43857
G1 X166.122 Y185.502 E57.61025
G1 X165.32 Y185.618 E57.78204
G1 X164.544 Y185.655 E57.94674
G1 X162.849 Y185.655 E58.30608
G1 X162.04 Y185.615 E58.4778
G1 X161.554 Y185.542 E58.58199
G1 X161.442 Y185.728 E58.62802
G1 X160.957 Y186.378 E58.79995
G1 X160.435 Y186.952 E58.96443
G1 X160.28 Y187.107 E59.0109
G1 X159.679 Y187.651 E59.18276
G1 X159.028 Y188.133 E59.35448
G1 X158.332 Y188.549 E59.52638
G1 X157.599 Y188.894 E59.69813
G1 X156.835 Y189.165 E59.86998
G1 X156.049 Y189.36 E60.04167
G1 X155.247 Y189.476 E60.21346
G1 X154.471 Y189.513 E60.37816
G1 X134.851 Y189.514 E64.5376
G1 X134.042 Y189.474 E64.70932
G1 X133.24 Y189.355 E64.8812
G1 X132.454 Y189.157 E65.05304
G1 X131.692 Y188.882 E65.22478
G1 X130.96 Y188.534 E65.39661
G1 X130.266 Y188.116 E65.56837
G1 X129.617 Y187.631 E65.74013
G1 X129.042 Y187.108 E65.90491
G1 X128.887 Y186.953 E65.95138
G1 X128.343 Y186.352 E66.12324
G1 X127.861 Y185.701 E66.29496
G1 X127.769 Y185.547 E66.33299
G1 X127.514 Y185.592 E66.38789
G1 X126.473 Y185.658 E66.60902
G1 X102.85 Y185.658 E71.6171
G1 X102.041 Y185.618 E71.78881
G1 X101.553 Y185.545 E71.89342
G1 X101.442 Y185.728 E71.9388
G1 X100.957 Y186.378 E72.11073
G1 X100.435 Y186.952 E72.27521
G1 X100.28 Y187.107 E72.32168
G1 X99.679 Y187.651 E72.49354
G1 X99.028 Y188.133 E72.66526
G1 X98.332 Y188.549 E72.83716
G1 X97.599 Y188.894 E73.00891
G1 X96.835 Y189.165 E73.18076
G1 X96.049 Y189.36 E73.35245
G1 X95.247 Y189.476 E73.52424
G1 X94.471 Y189.513 E73.68894
G1 X74.851 Y189.514 E77.84838
G1 X74.042 Y189.474 E78.0201
G1 X73.24 Y189.355 E78.19198
G1 X72.454 Y189.157 E78.36382
G1 X71.692 Y188.882 E78.53556
G1 X70.96 Y188.534 E78.70739
G1 X70.266 Y188.116 E78.87915
G1 X69.617 Y187.631 E79.05091
G1 X69.042 Y187.108 E79.21569
G1 X68.887 Y186.953 E79.26216
G1 X68.343 Y186.352 E79.43402
G1 X67.861 Y185.701 E79.60574
G1 X67.767 Y185.544 E79.64453
G1 X67.515 Y185.589 E79.6988
G1 X66.474 Y185.655 E79.91994
G1 X64.778 Y185.655 E80.27949
G1 X63.969 Y185.615 E80.45121
G1 X63.167 Y185.495 E80.62312
G1 X62.381 Y185.298 E80.79491
G1 X61.619 Y185.023 E80.96665
G1 X60.887 Y184.675 E81.13848
G1 X60.193 Y184.256 E81.31034
G1 X59.543 Y183.771 E81.48228
G1 X58.969 Y183.249 E81.64676
G1 X58.687 Y182.967 E81.73131
G1 X58.143 Y182.366 E81.90316
G1 X57.661 Y181.715 E82.07489
G1 X57.245 Y181.019 E82.24678
G1 X56.9 Y180.286 E82.41853
G1 X56.629 Y179.522 E82.59039
G1 X56.434 Y178.736 E82.76207
G1 X56.318 Y177.934 E82.93387
G1 X56.281 Y177.158 E83.09856
G1 X56.281 Y115.282 E96.21628
G1 X56.321 Y114.473 E96.38799
G1 X56.441 Y113.671 E96.55991
G1 X56.638 Y112.885 E96.7317
G1 X56.913 Y112.123 E96.90344
G1 X57.261 Y111.391 E97.07527
G1 X57.68 Y110.697 E97.24713
G1 X58.165 Y110.047 E97.41906
G1 X58.506 Y109.672 E97.52652
G1 X58.268 Y109.275 E97.62465
G1 X57.923 Y108.542 E97.79639
G1 X57.652 Y107.778 E97.96825
G1 X57.457 Y106.992 E98.13993
G1 X57.341 Y106.19 E98.31173
G1 X57.304 Y105.414 E98.47643
G1 X57.304 Y43.528 E111.59626
G1 X57.344 Y42.719 E111.76798
G1 X57.464 Y41.917 E111.93989
G1 X57.661 Y41.131 E112.11168
G1 X57.936 Y40.369 E112.28342
G1 X58.284 Y39.637 E112.45525
G1 X58.703 Y38.943 E112.62711
G0 F3908.6 X59.23 Y39.111
G1 F2280 X59.712 Y38.494 E112.7931
G1 X60.085 Y38.094 E112.90905
G1 X60.357 Y37.822 E112.9906
G1 X60.939 Y37.297 E113.15676
G1 X61.571 Y36.833 E113.32298
G1 X62.247 Y36.437 E113.48907
G1 X62.96 Y36.111 E113.65528
G1 X63.703 Y35.86 E113.82154
G1 X64.467 Y35.686 E113.98765
G1 X65.245 Y35.59 E114.15384
G1 X65.791 Y35.571 E114.26966
G1 X67.464 Y35.571 E114.62434
G1 X68.247 Y35.611 E114.79055
G1 X69.021 Y35.73 E114.95657
G1 X69.146 Y35.763 E114.98397
G1 X69.43 Y35.31 E115.09732
G1 X69.912 Y34.693 E115.26331
G1 X70.267 Y34.31 E115.37402
G1 X70.421 Y34.155 E115.42034
G1 X71.001 Y33.628 E115.58648
G1 X71.632 Y33.163 E115.75265
G1 X72.307 Y32.764 E115.91888
G1 X73.019 Y32.437 E116.08498
G1 X73.761 Y32.183 E116.25125
G1 X74.524 Y32.006 E116.4173
G1 X75.302 Y31.908 E116.58354
G1 X75.848 Y31.887 E116.69938
G1 X95.471 Y31.823 E120.85947
G1 X96.254 Y31.86 E121.02566
G1 X97.029 Y31.977 E121.19182
G1 X97.788 Y32.173 E121.358
G1 X97.968 Y32.239 E121.39865
G1 X98.264 Y31.901 E121.4939
G1 X98.838 Y31.368 E121.65996
G1 X99.463 Y30.895 E121.82612
G1 X100.134 Y30.489 E121.99239
G1 X100.842 Y30.153 E122.15853
G1 X101.581 Y29.891 E122.32475
G1 X102.342 Y29.706 E122.49078
G1 X103.119 Y29.599 E122.65706
G1 X103.776 Y29.571 E122.79647
G1 X127.591 Y29.571 E127.84525
G1 X128.374 Y29.611 E128.01147
G1 X129.148 Y29.73 E128.17748
G1 X129.907 Y29.928 E128.34377
G1 X130.641 Y30.202 E128.50987
G1 X131.344 Y30.55 E128.67617
G1 X132.008 Y30.967 E128.84239
G1 X132.625 Y31.449 E129.00838
G1 X133.191 Y31.992 E129.17466
G1 X133.402 Y32.241 E129.24385
G1 X133.76 Y32.119 E129.32403
G1 X134.523 Y31.942 E129.49009
G1 X135.301 Y31.844 E129.65633
G1 X135.897 Y31.823 E129.78276
G1 X155.52 Y31.887 E133.94285
G1 X156.303 Y31.93 E134.1091
G1 X157.077 Y32.052 E134.27521
G1 X157.835 Y32.252 E134.44141
G1 X158.568 Y32.528 E134.60746
G1 X159.27 Y32.878 E134.77375
G1 X159.932 Y33.297 E134.93985
G1 X160.548 Y33.782 E135.10606
G1 X160.947 Y34.155 E135.22185
G1 X161.101 Y34.31 E135.26817
G1 X161.624 Y34.894 E135.43437
G1 X162.085 Y35.528 E135.60055
G1 X162.222 Y35.762 E135.65804
G1 X162.328 Y35.734 E135.68128
G1 X163.102 Y35.613 E135.84736
G1 X163.903 Y35.571 E136.01741
G1 X165.577 Y35.571 E136.3723
G1 X166.36 Y35.611 E136.53851
G1 X167.134 Y35.73 E136.70452
G1 X167.893 Y35.928 E136.87082
G1 X168.627 Y36.202 E137.03691
G1 X169.33 Y36.55 E137.20321
G1 X169.994 Y36.967 E137.36944
G1 X170.611 Y37.449 E137.53542
G1 X171.011 Y37.822 E137.65137
G1 X171.283 Y38.094 E137.73292
G1 X171.808 Y38.676 E137.89909
G1 X172.272 Y39.308 E138.0653
G1 X172.668 Y39.984 E138.23139
G1 X172.994 Y40.697 E138.3976
G1 X173.245 Y41.44 E138.56386
G1 X173.419 Y42.204 E138.72998
G1 X173.515 Y42.982 E138.89616
G1 X173.534 Y43.528 E139.01199
G1 X173.534 Y105.414 E152.13182
G1 X173.494 Y106.197 E152.29803
G1 X173.375 Y106.971 E152.46405
G1 X173.177 Y107.73 E152.63034
G1 X172.903 Y108.464 E152.79644
G1 X172.555 Y109.167 E152.96273
G1 X172.138 Y109.831 E153.12896
G1 X171.656 Y110.448 E153.29494
G1 X171.283 Y110.848 E153.41089
G1 X171.169 Y110.962 E153.44507
G1 X171.249 Y111.072 E153.47391
G1 X171.645 Y111.748 E153.64
G1 X171.971 Y112.461 E153.8062
G1 X172.222 Y113.204 E153.97247
G1 X172.396 Y113.968 E154.13858
G1 X172.492 Y114.746 E154.30477
G1 X172.511 Y115.292 E154.42059
G1 X172.511 Y177.158 E167.53618
G1 X172.471 Y177.941 E167.70239
G1 X172.352 Y178.715 E167.86841
G1 X172.154 Y179.474 E168.0347
G1 X171.88 Y180.208 E168.2008
G1 X171.532 Y180.911 E168.3671
G1 X171.115 Y181.575 E168.53332
G1 X170.633 Y182.192 E168.69931
G1 X170.26 Y182.592 E168.81526
G1 X169.978 Y182.874 E168.8998
G1 X169.396 Y183.399 E169.06597
G1 X168.764 Y183.863 E169.23219
G1 X168.088 Y184.259 E169.39828
G1 X167.375 Y184.585 E169.56448
G1 X166.632 Y184.836 E169.73075
G1 X165.868 Y185.01 E169.89686
G1 X165.09 Y185.106 E170.06305
G1 X164.544 Y185.125 E170.17887
G1 X162.849 Y185.125 E170.53821
G1 X162.066 Y185.085 E170.70442
G1 X161.292 Y184.966 E170.87044
G1 X161.289 Y184.965 E170.87111
G1 X160.915 Y185.56 E171.0201
G1 X160.433 Y186.177 E171.18608
G1 X160.06 Y186.577 E171.30203
G1 X159.905 Y186.732 E171.3485
G1 X159.323 Y187.257 E171.51467
G1 X158.691 Y187.721 E171.68089
G1 X158.015 Y188.117 E171.84698
G1 X157.302 Y188.443 E172.01318
G1 X156.559 Y188.694 E172.17945
G1 X155.795 Y188.868 E172.34556
G1 X155.017 Y188.964 E172.51175
G1 X154.471 Y188.983 E172.62757
G1 X134.851 Y188.984 E176.78701
G1 X134.069 Y188.944 E176.95301
G1 X133.294 Y188.825 E177.11924
G1 X132.535 Y188.627 E177.28553
G1 X131.801 Y188.353 E177.45163
G1 X131.098 Y188.005 E177.61792
G1 X130.435 Y187.588 E177.78397
G1 X129.817 Y187.106 E177.95012
G1 X129.417 Y186.733 E178.06607
G1 X129.262 Y186.578 E178.11254
G1 X128.737 Y185.996 E178.27871
G1 X128.273 Y185.364 E178.44492
G1 X128.038 Y184.962 E178.54364
G1 X127.942 Y184.986 E178.56462
G1 X127.166 Y185.097 E178.73081
G1 X126.473 Y185.128 E178.87787
G1 X102.85 Y185.128 E183.88595
G1 X102.067 Y185.088 E184.05216
G1 X101.293 Y184.969 E184.21817
G1 X101.287 Y184.967 E184.21952
G1 X100.915 Y185.56 E184.36792
G1 X100.433 Y186.177 E184.53391
G1 X100.06 Y186.577 E184.64985
G1 X99.905 Y186.732 E184.69633
G1 X99.323 Y187.257 E184.86249
G1 X98.691 Y187.721 E185.02871
G1 X98.015 Y188.117 E185.1948
G1 X97.302 Y188.443 E185.36101
G1 X96.559 Y188.694 E185.52727
G1 X95.795 Y188.868 E185.69338
G1 X95.017 Y188.964 E185.85957
G1 X94.471 Y188.983 E185.97539
G1 X74.851 Y188.984 E190.13483
G1 X74.069 Y188.944 E190.30083
G1 X73.294 Y188.825 E190.46706
G1 X72.535 Y188.627 E190.63335
G1 X71.801 Y188.353 E190.79945
G1 X71.098 Y188.005 E190.96574
G1 X70.435 Y187.588 E191.13179
G1 X69.817 Y187.106 E191.29794
G1 X69.417 Y186.733 E191.41389
G1 X69.262 Y186.578 E191.46036
G1 X68.737 Y185.996 E191.62653
G1 X68.273 Y185.364 E191.79275
G1 X68.036 Y184.96 E191.89204
G1 X67.942 Y184.983 E191.91256
G1 X67.166 Y185.094 E192.07875
G1 X66.474 Y185.125 E192.2256
G1 X64.778 Y185.125 E192.58515
G1 X63.995 Y185.085 E192.75136
G1 X63.221 Y184.966 E192.91738
G1 X62.462 Y184.768 E193.08367
G1 X61.728 Y184.494 E193.24977
G1 X61.025 Y184.146 E193.41606
G1 X60.361 Y183.729 E193.58229
G1 X59.744 Y183.247 E193.74828
G1 X59.344 Y182.874 E193.86422
G1 X59.062 Y182.592 E193.94877
G1 X58.537 Y182.01 E194.11494
G1 X58.073 Y181.378 E194.28115
G1 X57.677 Y180.702 E194.44725
G1 X57.351 Y179.989 E194.61345
G1 X57.1 Y179.246 E194.77971
G1 X56.926 Y178.482 E194.94583
G1 X56.83 Y177.704 E195.11202
G1 X56.811 Y177.158 E195.22784
G1 X56.811 Y115.282 E208.34555
G1 X56.851 Y114.499 E208.51176
G1 X56.97 Y113.725 E208.67778
G1 X57.168 Y112.966 E208.84407
G1 X57.442 Y112.232 E209.01017
G1 X57.79 Y111.529 E209.17646
G1 X58.207 Y110.865 E209.34269
G1 X58.689 Y110.248 E209.50868
G1 X59.062 Y109.848 E209.62462
G1 X59.172 Y109.738 E209.6576
G1 X59.096 Y109.634 E209.68491
G1 X58.7 Y108.958 E209.851
G1 X58.374 Y108.245 E210.01721
G1 X58.123 Y107.502 E210.18347
G1 X57.949 Y106.738 E210.34959
G1 X57.853 Y105.96 E210.51577
G1 X57.834 Y105.414 E210.63159
G1 X57.834 Y43.528 E223.75143
G1 X57.874 Y42.745 E223.91764
G1 X57.993 Y41.971 E224.08366
G1 X58.191 Y41.212 E224.24995
G1 X58.465 Y40.478 E224.41604
G1 X58.813 Y39.775 E224.58234
G1 X59.23 Y39.111 E224.74857
G0 F3908.6 X59.757 Y39.287
G1 F2280 X60.46 Y38.469 E224.97723
G1 X60.732 Y38.197 E225.05877
G1 X61.294 Y37.691 E225.2191
G1 X61.907 Y37.247 E225.37956
G1 X62.562 Y36.871 E225.53967
G1 X63.254 Y36.566 E225.69999
G1 X63.975 Y36.335 E225.8605
G1 X64.716 Y36.182 E226.0209
G1 X65.791 Y36.101 E226.24945
G1 X67.464 Y36.101 E226.60413
G1 X68.219 Y36.141 E226.76441
G1 X68.966 Y36.26 E226.92477
G1 X69.406 Y36.379 E227.0214
G1 X69.541 Y36.118 E227.0837
G1 X69.957 Y35.486 E227.2441
G1 X70.643 Y34.684 E227.46784
G1 X70.797 Y34.529 E227.51416
G1 X71.358 Y34.021 E227.67461
G1 X71.969 Y33.576 E227.83485
G1 X72.624 Y33.197 E227.99528
G1 X73.315 Y32.89 E228.15558
G1 X74.034 Y32.657 E228.31582
G1 X74.775 Y32.502 E228.47631
G1 X75.85 Y32.417 E228.70492
G1 X95.473 Y32.353 E232.86502
G1 X96.228 Y32.391 E233.02528
G1 X96.975 Y32.508 E233.18557
G1 X97.706 Y32.703 E233.34597
G1 X98.136 Y32.868 E233.44361
G1 X98.314 Y32.634 E233.50594
G1 X98.832 Y32.084 E233.66611
G1 X99.406 Y31.591 E233.82652
G1 X100.028 Y31.161 E233.98683
G1 X100.693 Y30.799 E234.14734
G1 X101.391 Y30.51 E234.3075
G1 X102.117 Y30.296 E234.46796
G1 X102.861 Y30.16 E234.6283
G1 X103.776 Y30.101 E234.82268
G1 X127.591 Y30.101 E239.87146
G1 X128.346 Y30.141 E240.03175
G1 X129.093 Y30.26 E240.19211
G1 X129.823 Y30.458 E240.35246
G1 X130.528 Y30.732 E240.51281
G1 X131.2 Y31.078 E240.67305
G1 X131.832 Y31.494 E240.83345
G1 X132.417 Y31.974 E240.99388
G1 X132.948 Y32.512 E241.15413
G1 X133.228 Y32.864 E241.24949
G1 X133.314 Y32.826 E241.26942
G1 X134.033 Y32.593 E241.42965
G1 X134.773 Y32.438 E241.58993
G1 X135.895 Y32.353 E241.82848
G1 X155.518 Y32.417 E245.98858
G1 X156.273 Y32.459 E246.14889
G1 X157.02 Y32.581 E246.30935
G1 X157.749 Y32.781 E246.46961
G1 X158.453 Y33.057 E246.62991
G1 X159.125 Y33.406 E246.79045
G1 X159.755 Y33.824 E246.95073
G1 X160.571 Y34.529 E247.17934
G1 X160.725 Y34.684 E247.22567
G1 X161.229 Y35.248 E247.38602
G1 X161.67 Y35.862 E247.54628
G1 X161.961 Y36.371 E247.67058
G1 X161.985 Y36.363 E247.67594
G1 X162.723 Y36.199 E247.83622
G1 X163.475 Y36.114 E247.99666
G1 X163.903 Y36.101 E248.08743
G1 X165.577 Y36.101 E248.44232
G1 X166.332 Y36.141 E248.60261
G1 X167.079 Y36.26 E248.76297
